X:171
T:Padraig O'Keeffe's
R:polka
D:Verena Commins / Julie Langan: Fonnchaoi
Z:transcribed by Dave Marshall
M:2/4
L:1/8
K:G
|: Bd cA | D2 B2 | D2 A2 | D2 B>A | Bd cA | D2 B>A | Bd cA |1 GF G>A :|2 GA Bd |
|: e2 e2 | d3 (e | e)(f f)d | g2 gf | e2 e>f | ed dB | B/c/d ef | gd ef |
g2 d>c | BG GA/G/ | FA AB/A/ | GA Bd | g2 d2 | B2 BA | B/c/d cA |1 GA Bd :|2 GF G2 |
